X:1
T: Mr and Mrs McLaughlin of San Diego
C:Muriel A Johnstone
R:Reel
%Q: 232
K:G
M:4/4
L:1/8
|:E2|DG BG c2 Bc|dG Bd e2 de|g3e dG Bd|cA BG AG EG|
DG BG c2 Bc|dG Bd e2 de|g2 ed BD BA|G2 B2 G2:|
Bc|dg gd e2 dc|BD GB AG EG|DE GA B2 AG|AG BG AB ce|
dg2d e2 dc|BD GB AG EG|D2 ed BD BA|G2 G2 GA Bc|
dg2d e2 dc|BD GB AG EG|DE GA B2 AG|AG BG AG EG|
DG BG c2 Bc|dG Bd e2 de|g2 ed BD BA|G2 B2 G2||
